X: 47
T:Chelmsford Races
% Nottingham Music Database
S:Thomas Hardy Collection, via Phil Rowe
M:6/8
K:Bb
F|"Bb"B2B BAB|"F"c2c f2f|"Bb"d2d B2B|"F"ABc FGA|
"Bb"B2B BAB|"F"c2c f2f|"Eb"egf "F"edc|"Bb"B2B B2::
f|"Bb"fef def|"Eb"g2g g3|"F"aga fga|"Bb"b2b b3|
"Bb"fef def|"Eb"g2a bag|"Bb"fgf "F7"edc|"Bb"B2B B2:|<end>
<start>
